X:594
T:Aitken Drum #1, The
C:Joe Buchanan's Scottish Tome - Page 164.3
I:164 3
R:Reel
Z:Carl Allison
L:1/8
M:4/4
K:G
GA | "G"B2 B2 "G/D"cBAG | "C"E4 G2 > "A7/C#"E2 | "G"D2 D2 E2 "Em"G2 | "A7"B2 A2 "D7"A2 GA |
"G"B2 B2 "G/D"cBAG | "C"E4 G2 > "A7/C#"E2 | "G"D2 D2 E2 "Em"G2 | "G"G4 G2 :|
G2 | "G"B2 B2 B2 "G/D"AG | "C"d4 e2 > c2 | "G"B2 d2 "Em"B2 G2 | "A7"B2 A2 "D7"A2 GA |
"G"B2 B2 "G/D"cBAG | "C"E4 "A4/C#"G2 > E2 | "G"D2 D2 "D7"E2 F2 | "G"G4 G2 :|
